Numix/64/mimetypes/image-x-canon-crw.svg

<?xml version="1.0" encoding="UTF-8" standalone="no"?>
<svg
   xmlns:dc="http://purl.org/dc/elements/1.1/"
   xmlns:cc="http://creativecommons.org/ns#"
   xmlns:rdf="http://www.w3.org/1999/02/22-rdf-syntax-ns#"
   xmlns:svg="http://www.w3.org/2000/svg"
   xmlns="http://www.w3.org/2000/svg"
   xmlns:sodipodi="http://sodipodi.sourceforge.net/DTD/sodipodi-0.dtd"
   xmlns:inkscape="http://www.inkscape.org/namespaces/inkscape"
   width="64px"
   height="64px"
   viewBox="0 0 64 64"
   version="1.1"
   id="svg2"
   inkscape:version="0.91 r13725"
   sodipodi:docname="image-x-canon-crw.svg">
  <metadata
     id="metadata17">
    <rdf:RDF>
      <cc:Work
         rdf:about="">
        <dc:format>image/svg+xml</dc:format>
        <dc:type
           rdf:resource="http://purl.org/dc/dcmitype/StillImage" />
        <dc:title />
      </cc:Work>
    </rdf:RDF>
  </metadata>
  <defs
     id="defs15">
    <clipPath
       id="clipPath-258929573">
      <g
         transform="translate(0,-1004.3622)"
         id="g17">
        <path
           inkscape:connector-curvature="0"
           d="m -24,13 c 0,1.105 -0.672,2 -1.5,2 -0.828,0 -1.5,-0.895 -1.5,-2 0,-1.105 0.672,-2 1.5,-2 0.828,0 1.5,0.895 1.5,2 z"
           transform="matrix(15.333333,0,0,11.5,414.99999,878.8622)"
           style="fill:#1890d0"
           id="path19" />
      </g>
    </clipPath>
    <clipPath
       id="clipPath-258929573-2">
      <g
         transform="translate(0,-1004.3622)"
         id="g17-8">
        <path
           inkscape:connector-curvature="0"
           d="m -24,13 c 0,1.105 -0.672,2 -1.5,2 -0.828,0 -1.5,-0.895 -1.5,-2 0,-1.105 0.672,-2 1.5,-2 0.828,0 1.5,0.895 1.5,2 z"
           transform="matrix(15.333333,0,0,11.5,414.99999,878.8622)"
           style="fill:#1890d0"
           id="path19-5" />
      </g>
    </clipPath>
  </defs>
  <sodipodi:namedview
     pagecolor="#ffffff"
     bordercolor="#666666"
     borderopacity="1"
     objecttolerance="10"
     gridtolerance="10"
     guidetolerance="10"
     inkscape:pageopacity="0"
     inkscape:pageshadow="2"
     inkscape:window-width="1920"
     inkscape:window-height="1013"
     id="namedview13"
     showgrid="true"
     inkscape:zoom="22.627417"
     inkscape:cx="22.314126"
     inkscape:cy="33.898022"
     inkscape:window-x="0"
     inkscape:window-y="27"
     inkscape:window-maximized="1"
     inkscape:current-layer="svg2">
    <inkscape:grid
       type="xygrid"
       id="grid4160" />
  </sodipodi:namedview>
  <path
     inkscape:connector-curvature="0"
     id="path5"
     d="M 10.671875,0 C 9.296875,0 8,1.355469 8,2.789062 L 8,61.210938 C 8,62.566406 9.375,64 10.671875,64 l 42.65625,0 C 54.625,64 56,62.566406 56,61.210938 L 56,18 38,0 Z m 0,0"
     style="fill:#35a14c;fill-opacity:1;fill-rule:nonzero;stroke:none" />
  <path
     inkscape:connector-curvature="0"
     id="path7"
     d="m 42,18 14,14 0,-14 z m 0,0"
     style="fill:#000000;fill-opacity:0.19607801;fill-rule:nonzero;stroke:none" />
  <path
     inkscape:connector-curvature="0"
     id="path9"
     d="M 38,0 55.984375,18 40.757812,18 C 39.410156,18 38,16.574219 38,15.226562 Z m 0,0"
     style="fill:#ffffff;fill-opacity:0.39215698;fill-rule:nonzero;stroke:none" />
  <path
     inkscape:connector-curvature="0"
     id="path13"
     d="M 8,48 8,61.33594 C 8,62.63281 9.375,64 10.664062,64 l 42.671876,0 C 54.625,64 56,62.63281 56,61.33594 L 56,48 Z m 0,0"
     style="fill:#000000;fill-opacity:0.19607801;fill-rule:nonzero;stroke:none" />
  <g
     id="g4162">
    <path
       d="M 22.868779,62 Q 20.497737,62 19.248869,60.56966 18,59.139319 18,56.500001 q 0,-1.311146 0.380091,-2.332818 0.38009,-1.021672 1.049774,-1.719814 0.687783,-0.71517 1.610859,-1.072756 Q 21.981901,51 23.085973,51 q 0.597285,0 1.067874,0.102168 0.488687,0.08514 0.850677,0.204334 0.361991,0.119196 0.597286,0.255418 0.253394,0.136223 0.38009,0.204334 l -0.579185,1.668731 q -0.416289,-0.255418 -1.013575,-0.425697 -0.579184,-0.187306 -1.339365,-0.187306 -0.524888,0 -1.031676,0.187306 -0.488687,0.170279 -0.886877,0.595976 -0.38009,0.408669 -0.633485,1.10681 -0.235293,0.698143 -0.235293,1.736842 0,1.804955 0.651584,2.775543 0.669683,0.953559 2.171945,0.953559 0.868777,0 1.429864,-0.187305 0.579186,-0.187308 0.923077,-0.374613 L 26,61.267802 Q 25.529412,61.540247 24.714932,61.778637 23.918553,62 22.868779,62 Z"
       style="font-style:normal;font-variant:normal;font-weight:bold;font-stretch:normal;font-size:medium;line-height:125%;font-family:'Ubuntu Mono';-inkscape-font-specification:'Ubuntu Mono, Bold';text-align:start;letter-spacing:0px;word-spacing:0px;writing-mode:lr-tb;text-anchor:start;fill:#ffffff;fill-opacity:1;stroke:none;stroke-width:1px;stroke-linecap:butt;stroke-linejoin:miter;stroke-opacity:1"
       id="path4151"
       inkscape:connector-curvature="0" />
    <path
       d="m 30.942528,51 q 0.974714,0 1.765517,0.210862 0.790805,0.210863 1.36092,0.65016 0.570115,0.439297 0.864368,1.1246 0.312643,0.667732 0.312643,1.58147 0,0.948882 -0.404597,1.722045 -0.404598,0.773163 -1.342529,1.177317 0.312644,0.456869 0.66207,1.01917 0.349424,0.544728 0.680459,1.159744 0.331034,0.597444 0.625287,1.21246 Q 35.77931,61.455272 36,62 l -2.372415,0 Q 33.204597,60.945687 32.634482,59.979234 32.082758,58.995208 31.43908,57.993611 l -1.177011,0 0,4.006389 L 28,62 28,51.28115 q 0.331034,-0.07029 0.717242,-0.123003 0.404597,-0.07029 0.809195,-0.08786 0.404598,-0.03514 0.772413,-0.05272 Q 30.666667,51 30.942528,51 Z m 2.004599,3.549521 q 0,-0.861023 -0.551724,-1.265175 -0.551724,-0.404155 -1.452875,-0.404155 -0.128735,0 -0.312642,0.01757 -0.183909,0 -0.367817,0.03514 l 0,3.268372 0.496551,0 q 1.158622,0 1.673564,-0.421726 0.514943,-0.439297 0.514943,-1.230031 z"
       style="font-style:normal;font-variant:normal;font-weight:bold;font-stretch:normal;font-size:medium;line-height:125%;font-family:'Ubuntu Mono';-inkscape-font-specification:'Ubuntu Mono, Bold';text-align:start;letter-spacing:0px;word-spacing:0px;writing-mode:lr-tb;text-anchor:start;fill:#ffffff;fill-opacity:1;stroke:none;stroke-width:1px;stroke-linecap:butt;stroke-linejoin:miter;stroke-opacity:1"
       id="path4153"
       inkscape:connector-curvature="0" />
    <path
       d="m 43.411873,54.891762 q 0.0793,0.337641 0.237886,0.835217 0.158591,0.497577 0.337004,1.101778 0.198238,0.6042 0.4163,1.297254 0.237886,0.693052 0.455947,1.421647 0,-0.92407 -0.01982,-1.972536 Q 44.81936,56.508886 44.79955,55.407109 44.77973,54.305331 44.75991,53.185785 44.74009,52.048466 44.74009,51 l 2.259914,0 q -0.05947,1.350566 -0.118943,2.789985 -0.05947,1.421648 -0.138766,2.843295 -0.0793,1.403877 -0.198238,2.772214 Q 46.444937,60.77383 46.306164,62 l -2.022028,0 Q 43.848013,60.880453 43.411889,59.600969 42.975766,58.303717 42.539642,57.130857 42.103518,58.250405 41.627747,59.565429 41.151975,60.880453 40.7555,62 l -2.022028,0 Q 38.574881,60.77383 38.455939,59.405494 38.336996,58.019387 38.237878,56.615509 38.158578,55.193861 38.09911,53.772213 38.03964,52.332795 38,51 l 2.259913,0 q -0.01983,1.048466 -0.03964,2.168013 -0.01982,1.119549 -0.03964,2.239096 -0.01982,1.101777 -0.03964,2.168013 -0.01982,1.048466 -0.01982,1.972536 0.178415,-0.568659 0.396476,-1.243941 0.237886,-0.675283 0.436124,-1.332795 0.218061,-0.657512 0.396476,-1.208401 0.178414,-0.550888 0.277533,-0.870759 l 1.784142,0 z"
       style="font-style:normal;font-variant:normal;font-weight:bold;font-stretch:normal;font-size:medium;line-height:125%;font-family:'Ubuntu Mono';-inkscape-font-specification:'Ubuntu Mono, Bold';text-align:start;letter-spacing:0px;word-spacing:0px;writing-mode:lr-tb;text-anchor:start;fill:#ffffff;fill-opacity:1;stroke:none;stroke-width:1px;stroke-linecap:butt;stroke-linejoin:miter;stroke-opacity:1"
       id="path4155"
       inkscape:connector-curvature="0" />
  </g>
  <g
     transform="matrix(0.80051185,0,0,0.80026785,12.788106,12.78717)"
     style="fill:#ffffff;fill-opacity:1"
     id="g59">
    <g
       id="g61"
       clip-path="url(#clipPath-258929573-2)"
       style="fill:#ffffff">
      <!-- color: #3d3d3d -->
      <g
         id="g63"
         style="fill:#ffffff">
        <path
           inkscape:connector-curvature="0"
           d="M 27.08,9.641 23.471,19.793 37.705,17.43 C 35.603,13.438 31.721,10.5 27.08,9.641 m 0,0"
           style="fill:#ffffff;fill-rule:nonzero;stroke:none"
           id="path65" />
        <path
           inkscape:connector-curvature="0"
           d="m 38.15,19.449 -10.738,1.988 9.199,10.98 c 2.457,-3.797 3.09,-8.586 1.527,-12.969 m 0.012,0"
           style="fill:#ffffff;fill-rule:nonzero;stroke:none"
           id="path67" />
        <path
           inkscape:connector-curvature="0"
           d="m 35.07,33.809 -7.121,-8.164 -5.05,13.344 c 4.566,0.195 9.09,-1.656 12.156,-5.18 m 0.012,0"
           style="fill:#ffffff;fill-rule:nonzero;stroke:none"
           id="path69" />
        <path
           inkscape:connector-curvature="0"
           d="m 20.922,38.36 3.617,-10.152 -14.242,2.363 c 2.109,3.996 5.996,6.934 10.625,7.789 m 0,0"
           style="fill:#ffffff;fill-rule:nonzero;stroke:none"
           id="path71" />
        <path
           inkscape:connector-curvature="0"
           d="M 9.852,28.559 20.586,26.571 11.387,15.591 C 8.934,19.392 8.297,24.177 9.86,28.56 m -0.008,0"
           style="fill:#ffffff;fill-rule:nonzero;stroke:none"
           id="path73" />
        <path
           inkscape:connector-curvature="0"
           d="m 12.926,14.207 7.121,8.164 5.05,-13.344 c -4.563,-0.195 -9.09,1.656 -12.152,5.18 m -0.016,0"
           style="fill:#ffffff;fill-rule:nonzero;stroke:none"
           id="path75" />
      </g>
    </g>
  </g>
</svg>

<svg xmlns="http://www.w3.org/2000/svg" viewBox="0 0 64 64">
 <defs>
  
 </defs>
 <path d="m 10.672 0 c -1.375 0 -2.672 1.355 -2.672 2.789 l 0 58.42 c 0 1.355 1.375 2.789 2.672 2.789 l 42.656 0 c 1.297 0 2.672 -1.434 2.672 -2.789 l 0 -43.21 -18 -18 m -27.328 0" style="fill:#35a14c;fill-opacity:1;stroke:none;fill-rule:nonzero"/>
 <path d="m 42 18 14 14 0 -14 z m 0 0" style="fill:#000;fill-opacity:0.196;stroke:none;fill-rule:nonzero"/>
 <path d="m 38 0 17.984 18 -15.227 0 c -1.348 0 -2.758 -1.426 -2.758 -2.773 m 0 -15.227" style="fill:#fff;fill-opacity:0.392;stroke:none;fill-rule:nonzero"/>
 <path d="m 8 48 0 13.336 c 0 1.297 1.375 2.664 2.664 2.664 l 42.672 0 c 1.289 0 2.664 -1.367 2.664 -2.664 l 0 -13.336 m -48 0" style="fill:#000;fill-opacity:0.196;stroke:none;fill-rule:nonzero"/>
 <g>
  <path d="m 22.869 62 q -2.371 0 -3.62 -1.43 -1.249 -1.43 -1.249 -4.07 q 0 -1.311 0.38 -2.333 0.38 -1.022 1.05 -1.72 0.688 -0.715 1.611 -1.073 q 0.941 -0.375 2.045 -0.375 q 0.597 0 1.068 0.102 0.489 0.085 0.851 0.204 0.362 0.119 0.597 0.255 0.253 0.136 0.38 0.204 l -0.579 1.669 q -0.416 -0.255 -1.014 -0.426 -0.579 -0.187 -1.339 -0.187 -0.525 0 -1.032 0.187 -0.489 0.17 -0.887 0.596 -0.38 0.409 -0.633 1.107 -0.235 0.698 -0.235 1.737 0 1.805 0.652 2.776 0.67 0.954 2.172 0.954 0.869 0 1.43 -0.187 0.579 -0.187 0.923 -0.375 l 0.561 1.652 q -0.471 0.272 -1.285 0.511 -0.796 0.221 -1.846 0.221" style="fill:#fff;fill-opacity:1;stroke:none"/>
  <path d="m 30.943 51 q 0.975 0 1.766 0.211 0.791 0.211 1.361 0.65 0.57 0.439 0.864 1.125 0.313 0.668 0.313 1.581 0 0.949 -0.405 1.722 -0.405 0.773 -1.343 1.177 0.313 0.457 0.662 1.019 0.349 0.545 0.68 1.16 0.331 0.597 0.625 1.212 q 0.313 0.597 0.533 1.142 l -2.372 0 q -0.423 -1.054 -0.993 -2.02 -0.552 -0.984 -1.195 -1.986 l -1.177 0 0 4.01 l -2.262 0 0 -10.719 q 0.331 -0.07 0.717 -0.123 0.405 -0.07 0.809 -0.088 0.405 -0.035 0.772 -0.053 q 0.368 -0.018 0.644 -0.018 m 2 3.55 q 0 -0.861 -0.552 -1.265 -0.552 -0.404 -1.453 -0.404 -0.129 0 -0.313 0.018 -0.184 0 -0.368 0.035 l 0 3.268 0.497 0 q 1.159 0 1.674 -0.422 0.515 -0.439 0.515 -1.23 z" style="fill:#fff;fill-opacity:1;stroke:none"/>
  <path d="m 43.41 54.892 q 0.079 0.338 0.238 0.835 0.159 0.498 0.337 1.102 0.198 0.604 0.416 1.297 0.238 0.693 0.456 1.422 0 -0.924 -0.02 -1.973 q -0.02 -1.066 -0.04 -2.168 -0.02 -1.102 -0.04 -2.221 -0.02 -1.137 -0.02 -2.186 l 2.26 0 q -0.059 1.351 -0.119 2.79 -0.059 1.422 -0.139 2.843 -0.079 1.404 -0.198 2.772 q -0.099 1.368 -0.238 2.595 l -2.022 0 q -0.436 -1.12 -0.872 -2.399 -0.436 -1.297 -0.872 -2.47 -0.436 1.12 -0.912 2.435 -0.476 1.315 -0.872 2.435 l -2.022 0 q -0.159 -1.226 -0.278 -2.595 -0.119 -1.386 -0.218 -2.79 -0.079 -1.422 -0.139 -2.843 -0.059 -1.439 -0.099 -2.772 l 2.26 0 q -0.02 1.048 -0.04 2.168 -0.02 1.12 -0.04 2.239 -0.02 1.102 -0.04 2.168 -0.02 1.048 -0.02 1.973 0.178 -0.569 0.396 -1.244 0.238 -0.675 0.436 -1.333 0.218 -0.658 0.396 -1.208 0.178 -0.551 0.278 -0.871 l 1.784 0 z" style="fill:#fff;fill-opacity:1;stroke:none"/>
 </g>
 <g transform="matrix(0.80051185,0,0,0.80026785,12.788106,12.78717)" style="fill:#fff;fill-opacity:1">
  <g style="clip-path:url(#clipPath-258929573-2);fill:#fff">
   <!-- color: #3d3d3d -->
   <g style="fill:#fff">
    <path d="M 27.08,9.641 23.471,19.793 37.705,17.43 C 35.603,13.438 31.721,10.5 27.08,9.641 m 0,0" style="fill:#fff;stroke:none;fill-rule:nonzero"/>
    <path d="m 38.15 19.449 -10.738 1.988 9.199 10.98 c 2.457 -3.797 3.09 -8.586 1.527 -12.969 m 0.012 0" style="fill:#fff;stroke:none;fill-rule:nonzero"/>
    <path d="m 35.07 33.809 -7.121 -8.164 -5.05 13.344 c 4.566 0.195 9.09 -1.656 12.156 -5.18 m 0.012 0" style="fill:#fff;stroke:none;fill-rule:nonzero"/>
    <path d="m 20.922 38.36 3.617 -10.152 -14.242 2.363 c 2.109 3.996 5.996 6.934 10.625 7.789 m 0 0" style="fill:#fff;stroke:none;fill-rule:nonzero"/>
    <path d="M 9.852,28.559 20.586,26.571 11.387,15.591 C 8.934,19.392 8.297,24.177 9.86,28.56 m -0.008,0" style="fill:#fff;stroke:none;fill-rule:nonzero"/>
    <path d="m 12.926 14.207 7.121 8.164 5.05 -13.344 c -4.563 -0.195 -9.09 1.656 -12.152 5.18 m -0.016 0" style="fill:#fff;stroke:none;fill-rule:nonzero"/>
   </g>
  </g>
 </g>
</svg>
